img/cart.svg

<svg width="101" height="101" viewBox="0 0 101 101" fill="none" xmlns="http://www.w3.org/2000/svg">
<g opacity="0.2" clip-path="url(#clip0)">
<path d="M100.362 14.6897C99.8087 13.9987 98.9717 13.5964 98.0866 13.5964H20.5456L18.3773 4.20068C18.0721 2.8788 16.895 1.94238 15.5384 1.94238H2.91342C1.30452 1.94238 0 3.2469 0 4.856C0 6.46509 1.30452 7.76941 2.91342 7.76941H13.2207L27.9391 71.5495C28.2441 72.8714 29.4214 73.8078 30.778 73.8078H89.1518C90.7609 73.8078 92.0652 72.5033 92.0652 70.8944C92.0652 69.2853 90.7607 67.981 89.1518 67.981H33.0958L30.8549 58.2694H89.3463C90.709 58.2694 91.8897 57.3249 92.1887 55.9955L100.929 17.1494C101.123 16.2858 100.915 15.3809 100.362 14.6897Z" fill="#505666"/>
<path d="M42.7316 77.6924C36.8412 77.6924 32.0488 82.4846 32.0488 88.3751C32.0488 94.2657 36.841 99.0578 42.7316 99.0578C48.6219 99.0578 53.4143 94.2657 53.4143 88.3751C53.4143 82.4846 48.6221 77.6924 42.7316 77.6924Z" fill="#505666"/>
<path d="M77.6925 77.6924C71.8021 77.6924 67.0098 82.4846 67.0098 88.3751C67.0098 94.2657 71.8019 99.0578 77.6925 99.0578C83.5828 99.0578 88.3752 94.2657 88.3752 88.3751C88.3752 82.4846 83.583 77.6924 77.6925 77.6924Z" fill="#505666"/>
</g>
<defs>
<clipPath id="clip0">
<rect width="101" height="101" fill="white"/>
</clipPath>
</defs>
</svg>

<svg width="101" height="101" fill="none" xmlns="http://www.w3.org/2000/svg"><g opacity=".2" clip-path="url(#clip0)" fill="#505666"><path d="M100.362 14.69a2.915 2.915 0 00-2.275-1.094H20.546l-2.169-9.395a2.914 2.914 0 00-2.839-2.259H2.913a2.914 2.914 0 000 5.827h10.308l14.718 63.78a2.914 2.914 0 002.839 2.259h58.374a2.913 2.913 0 000-5.827H33.096l-2.241-9.712h58.491a2.913 2.913 0 002.843-2.273l8.74-38.847a2.914 2.914 0 00-.567-2.46zm-57.63 63.002c-5.89 0-10.683 4.793-10.683 10.683s4.792 10.683 10.683 10.683c5.89 0 10.682-4.792 10.682-10.683 0-5.89-4.792-10.683-10.682-10.683zm34.96 0c-5.89 0-10.682 4.793-10.682 10.683s4.792 10.683 10.682 10.683c5.89 0 10.683-4.792 10.683-10.683 0-5.89-4.792-10.683-10.683-10.683z"/></g><defs><clipPath id="clip0"><path fill="#fff" d="M0 0h101v101H0z"/></clipPath></defs></svg>
